pictures/5/av1.svg

<svg height="1543" width="2780" xmlns="http://www.w3.org/2000/svg"><path d="m2779.92 1122.248-647.59-1121.94103-647.58 1121.94103z" fill="#fbac30"/><path d="m2779.92 1122.248-243.37-280.484h-808.45l-243.35 280.484z" fill="#12b17d"/><path d="m2132.33 1542.967 404.22-701.203h-808.45z" fill="#bb255c"/><path d="m601.309 1019.795h-307.25l-31.219 103.242h-262.84l295.242-800.57003h304.86l295.261 800.57003h-262.855zm-244.856-201.613h182.438l-91.215-282.075zm379.231-495.71503h274.846l172.85 538.91403 172.83-538.91403h274.86l-295.26 800.57003h-304.86z"/><path d="m2085.59 522.917-84.01 82.808-88.83-93.618 195.64-189.64003h135.63v480.09803h-158.43z" fill="#f1f4d4"/></svg>

<svg xmlns="http://www.w3.org/2000/svg" width="2780" height="1543"><path d="M2779.92 1122.248L2132.33.30697 1484.75 1122.248z" fill="#fbac30"/><path d="M2779.92 1122.248l-243.37-280.484H1728.1l-243.35 280.484z" fill="#12b17d"/><path d="M2132.33 1542.967l404.22-701.203H1728.1z" fill="#bb255c"/><path d="M601.309 1019.795h-307.25l-31.219 103.242H0l295.242-800.57003h304.86L895.363 1123.037H632.508zM356.453 818.182h182.438l-91.215-282.075zM735.684 322.46697h274.846L1183.38 861.381l172.83-538.91403h274.86L1335.81 1123.037h-304.86L735.684 322.46697"/><path d="M2085.59 522.917l-84.01 82.808-88.83-93.618 195.64-189.64003h135.63V802.565h-158.43V522.917" fill="#f1f4d4"/></svg>
